images/layer2.svg

<?xml version="1.0" encoding="UTF-8" standalone="no"?>
<svg width="1144px" height="517px" viewBox="0 0 1144 517" version="1.1" xmlns="http://www.w3.org/2000/svg" xmlns:xlink="http://www.w3.org/1999/xlink" xmlns:sketch="http://www.bohemiancoding.com/sketch/ns">
    <title>Slice 1</title>
    <description>Created with Sketch (http://www.bohemiancoding.com/sketch)</description>
    <defs></defs>
    <g id="Page-1" stroke="none" stroke-width="1" fill="none" fill-rule="evenodd" sketch:type="MSPage">
        <path d="M440,169.213203 L461.213203,148 L440,126.786797 L418.786797,148 L440,169.213203 Z" id="Rectangle-1" fill="#D76766" sketch:type="MSShapeGroup"></path>
        <path d="M655,312.213203 L676.213203,291 L655,269.786797 L633.786797,291 L655,312.213203 Z" id="Rectangle-1-copy" fill="#FFFFFF" sketch:type="MSShapeGroup"></path>
        <path d="M893,236.213203 L914.213203,215 L893,193.786797 L871.786797,215 L893,236.213203 Z" id="Rectangle-1-copy-2" fill="#0D2543" sketch:type="MSShapeGroup"></path>
        <path d="M1086,404.213203 L1107.2132,383 L1086,361.786797 L1064.7868,383 L1086,404.213203 Z" id="Rectangle-1-copy-3" fill="#FFFFFF" sketch:type="MSShapeGroup"></path>
        <path d="M738,478.213203 L759.213203,457 L738,435.786797 L716.786797,457 L738,478.213203 Z" id="Rectangle-1-copy-4" fill="#F2CC74" sketch:type="MSShapeGroup"></path>
        <path d="M441,471.213203 L462.213203,450 L441,428.786797 L419.786797,450 L441,471.213203 Z" id="Rectangle-1-copy-5" fill="#D76766" sketch:type="MSShapeGroup"></path>
        <path d="M601,45.2132034 L622.213203,24 L601,2.78679656 L579.786797,24 L601,45.2132034 Z" id="Rectangle-1-copy-6" fill="#94C5B4" sketch:type="MSShapeGroup"></path>
        <path d="M33,349.213203 L54.2132034,328 L33,306.786797 L11.7867966,328 L33,349.213203 Z" id="Rectangle-1-copy-6" fill="#94C5B4" sketch:type="MSShapeGroup"></path>
        <path d="M128,86.2132034 L149.213203,65 L128,43.7867966 L106.786797,65 L128,86.2132034 Z" id="Rectangle-1-copy-7" fill="#F2CC74" sketch:type="MSShapeGroup"></path>
    </g>
</svg>

<svg width="1144" height="517" viewBox="0 0 1144 517" xmlns="http://www.w3.org/2000/svg" xmlns:sketch="http://www.bohemiancoding.com/sketch/ns"><title>Slice 1</title><g sketch:type="MSPage" fill="none"><path d="M440 169.213l21.213-21.213-21.213-21.213-21.213 21.213 21.213 21.213z" fill="#D76766" sketch:type="MSShapeGroup"/><path d="M655 312.213l21.213-21.213-21.213-21.213-21.213 21.213 21.213 21.213z" fill="#fff" sketch:type="MSShapeGroup"/><path d="M893 236.213l21.213-21.213-21.213-21.213-21.213 21.213 21.213 21.213z" fill="#0D2543" sketch:type="MSShapeGroup"/><path d="M1086 404.213l21.213-21.213-21.213-21.213-21.213 21.213 21.213 21.213z" fill="#fff" sketch:type="MSShapeGroup"/><path d="M738 478.213l21.213-21.213-21.213-21.213-21.213 21.213 21.213 21.213z" fill="#F2CC74" sketch:type="MSShapeGroup"/><path d="M441 471.213l21.213-21.213-21.213-21.213-21.213 21.213 21.213 21.213z" fill="#D76766" sketch:type="MSShapeGroup"/><path d="M601 45.213l21.213-21.213-21.213-21.213-21.213 21.213 21.213 21.213zM33 349.213l21.213-21.213-21.213-21.213-21.213 21.213 21.213 21.213z" fill="#94C5B4" sketch:type="MSShapeGroup"/><path d="M128 86.213l21.213-21.213-21.213-21.213-21.213 21.213 21.213 21.213z" fill="#F2CC74" sketch:type="MSShapeGroup"/></g></svg>
